X: 1274
T: Kurdu Meclis Âşıkan Meyhânede
C: Hacı Ârif Bey
O: Turkey
F: http://compmusic.upf.edu/node/140
N: hicaz-uzzal--sarki--aksak--kurdu_meclis--haci_arif_bey
N: makam= hicaz-uzzal
N: form= sarki
N: usul= aksak = 9/8
M: 9/8
L: 1/16
K: C _7/8B ^f ^c 
Q: 1/4=126
%%MIDI tuningsystem comma53
d2cB c2BA B2AG A2B2 c2 | d2 efg2 =feed dcd2 e2^f2  | 
w:  ARANAĞME  |   | 
g2=fe f2ed e2dc dcBA G2 | AB cde2 dccB BAA4z2  | 
w:   |   | 
d2cB c2BA B2AG A2B2 c2 | d2 efg2 =feed dcd2 e2^f2  | 
w:  ARANAĞME  |   | 
g2=fe f2ed e2dc dcBA G2 | AB cde2 dccB BAA4z2  | 
w:   |   | 
z2c4d2 cBBA A6 | z2 d4 e=fed cde6  | \
w:  Kur du  mec *  *  *  lis   |  â şı *  kan  *  *  *  mey  | 
g2^1/4fe f2ed a3g gag^f fe | 
w:  hâ *  *  *  *  *  *  *  *  *  *  *  ne  | 
e6 e=fed cBA6  | z2c4d2 cBBA A6 | z2 d4 e=fed cde6  | 
w:  de   SAZ  |  Kur du  mec *  *  *  lis   |  â şı *  kan  *  *  *  mey  | 
g2^1/4fe f2ed a3g gag^f fe | e6 e=fed cde6  | 
w:  hâ *  *  *  *  *  *  *  *  *  *  *  ne  |  de   SAZ  | 
z2e4a2 e4 a6 | z2 g=ba2 g2f2 efag fed2  | \
w:  Neş e ler  var   |  dî *  *  de  i  *  *  mes  | 
f2ef g2fe e2d2 e2{=f}e^f ed | 
w:  tâ *  *  *  *  *  *  *  *  *  *  *  ne  | 
d2 efg2 =feed dcd6  | z2e4a2 e4 a6 | \
w:  de   SAZ  |  Neş e ler  var   | 
z2 g=ba2 g2=f2 edcd cBA2  | 
w:  dî *  *  de  i  *  *  mes  | 
e2de =f2ed c2Bc d2cB BA | A6 =b=c'ba a^ga6  | 
w:  tâ *  *  *  *  *  *  *  *  *  *  *  ne  |  de   SAZ  | 
z2a4a2 =baa^g a6 | z2 =b2a2 a^gg^1/4f fee6  | \
w:  Aks_ i  hüs *  *  *  nün   |  rû  *  nü *  mâ  *  *  *  pey  | 
e3d d3=c c3=B B2{c}Bc BA | 
w:  mâ *  *  *  *  *  *  *  *  *  ne  | 
A2 =B=cd2 cBBA A^GA6  | z2a4a2 =baa^g a6 | \
w:  de   SAZ  |  Aks_ i  hüs *  *  *  nün   | 
z2 =b2a2 a^gg^1/4f fee6  | 
w:  rû  *  nü *  mâ  *  *  *  pey  | 
=c'3=b b3a a3g gagf fe | e6 e=fed cde6  | \
w:  mâ *  *  *  *  *  *  *  *  *  ne  |  de   SAZ  | 
z2e4a2 e4 a6 | 
w:  Neş e ler  var   | 
z2 g=ba2 g2f2 efag fed2  | f2ef g2fe e2d2 e2{=f}e^f ed | 
w:  dî *  *  de  i  *  *  mes  |  tâ *  *  *  *  *  *  *  *  *  *  *  ne  | 
d2 efg2 =feed dcd6  | z2e4a2 e4 a6 | \
w:  de   SAZ  |  Neş e ler  var   | 
z2 g=ba2 g2=f2 edcd cBA2  | 
w:  dî *  *  de  i  *  *  mes  | 
e2de =f2ed c2Bc d2cB BA | A6 |
w:  tâ *  *  *  *  *  *  *  *  *  *  *  ne  |  de    | 


